X:1
T:CUARTETO en Sol m
T:W. A. MOZART
%%score 1 ( 2 3 ) 4 { ( 5 7 ) | ( 6 8 ) }
L:1/8
Q:1/4=90
M:4/4
K:Bb
V:1 treble nm="Violín"
V:2 alto nm="Viola"
V:3 alto 
V:4 bass-8 nm="Cello"
V:5 treble nm="Piano"
V:7 treble 
V:6 bass 
V:8 bass 
V:1
!ff! G4 D3 D | (ED) .D2 z4 | z8 | z8 |!ff! A4 D3 D | ED .D2 z4 | z8 | z8 |!p! B4- BAc^F | %9
 G2 z2 z4 | (B4- BAc^F) | G2 z2 z4 |!f! z (Dd).d (dcA^F) | G(Ee).e (eca^f) | !turn!g3 .a b2 ^c2 | %15
 .d2 .d'2 z4 |!p! G4 D3 D | (ED) D2 z4 | z8 | z8 |!p! .c'4 .f3 .f | (=ef) .f2 z4 | %22
 z (.D.D.D .D.D.D.D) | z (.E.E.E) (.E.D.E.C) | z!p! (.D.D.D .D.D.D.D) | z (.E.E.E) (.E.D.E.C) | %26
 z!p! (.D.D.D .D.D.D.D) |!f! (EG)!p!BB (B_AFD) |!f! (EG)!p!BB (B_AFD) | E2 z2 z4 | z8 | %31
!p! f4 F3 F | G(G/F/) .G.A .B2 z2 | f4 A3 A | B(B/A/) .B.c .d2 z2 |!<(! c(c/B/) .c.d .e2 z2!<)! | %36
!f! b4 B3 B | (BA) .A2 z4 | b4 B3 B | (BA) .A2 z4 | b4 B3 B | (=B2 _B2 A2 B2) | (G6 A2) | %43
 .B z E z D z C z |!p! B,2 z2 z4 | z!p! (fe'd' c'bac') | b2 z2 z4 | z (fe'd' c'bac') | %48
!<(! b8-!<)! |!f! b8- | b2 z (.g _af) z b | g/e/B/g/ _a/f/b/a/ g/e/B/g/ a/f/b/a/ | g2 z2 z4 | %53
 (^cd) z .d (=ef) z .f | (ab) z b d'/c'/b/a/ g/f/e/d/ | !trill(!Tc4- c2- c-c/B/4!trill)!c/4 | %56
 B2 z2 z4 | z8 | z8 | z8 | z4 (F4 |!p! E2) (D2 ^F2) G2- |!p! G2 C3 .D.E.=E | F2 z2 z4 | %64
 .b2 (c'/b/a/g/) .f2 .f2 | .b2 (c'/b/a/b/) .f'2 z2 | (ba/b/ c'/b/a/g/) .f2 .f2 | %67
 .b.b (c'/b/a/b/) .f'2 z2 | z!f! (f'/e'/) .d'(d'/c'/) .b(b/a/) .g(g/f/) | %69
 (ef/g/ a/b/c'/)d'/ (e'/d'/e'/d'/ e'/d'/e'/)d'/ | .e' z z2 ([ca]4 | [Bb]2) z z2!p! (efg) | %72
 (gfdf) (fedc) | B2 z2 z4 | B2 (c/B/A/G/) .F2 .F2 | .B2 .B2 .f2 z2 | (BA/B/ c/B/A/G/) .F.F.F.F | %77
 D2 z2 z4 | z8 | z8 |!f! (d/f/e/c/ d/f/e/c/ d/f/e/c/ d/f/e/c/) | f2 z2 (_A4 | F4 D4) | %83
 (EF/G/ _A/B/c/d/) (Te/d/e/f/) (Tg/f/g/_a/) | b4 (_d'4 | =d').b z .f .d.B.F.f | !trill(!Tc8 | %87
 B2 z2!p! (e2 d2 | c2 B2 A4) | (B3 c/d/ e2) d2 | (c2 B2) A4 | B2 z2 z4 | z4 _G2 F-F/F/ | %93
 f-f/d/ B z z4 | z4 _g2 f>.f | f8- | f8- | f2 z2!<(! (E4 | D4 ^F4)!<)! :: (G4!<(! C4 | %100
 B,4 _A,4!<)! |!f! G,4) (F4 | E4 D4 |!p! C2) z2 z4 | z8 | z8 | z8 | z8 | z8 | z8 | z8 | z8 | z8 | %113
!p! e8 | B8 | ._A2 .A2 (TA3 G/F/) | =E2 z2 z4 | f8 | c8 | .B2 .B2 (TB3 A/G/) | ^F2 z2 z4 | %121
!<(! d'8 | g8!<)! |!f! .f2 .f2 (Tf3 =e/d/) | ^c2 z2 z4 | (D4- D/=E/F/G/ A/=B/^c/d/) | =e8- | %127
 e2 .d2 .A2 a2- | a2 (g2 =e2) (b2- | b2 a2) z4 | z8 | (^c4- c/d/=e/f/ g/a/=b/^c'/) | .d'2 z2 z4 | %133
 .g4 .c3 .c | (=Bc) .c2 z4 | .f4 .B3 .B | (AB) .B2 z4 | .e4 .A3 .A | (AG) .G2 z4 | %139
 c4 [B,^F]3 [B,F] |!ff! [G,G]4 D3 D | (ED) .D2 z4 | z8 | z8 |!ff! A4 D3 D | ED .D2 z4 | z8 | %147
 z4 (AG).G.G | z4!<(! (d^c).c.c | z4 (f=e).e.e!<)! | z2!f! (=e2 ^c2 G2) |!p!{/^F} d4 .D3 .D | %152
 .=E{/F}(E/D/) .E.^F .G2 z2 | .d2 z2 .^F3 .F | .G(G/^F/) .G.A .B2 z2 | .A(A/G/) .A.B .c2 z2 | %156
!f! g4 .G3 .G | (G^F) .F2 z4 | g4 G3 .G | (G^F) .F2 z4 | g4 .G3 .G | (^G2 =G2 ^F2 G2) | (=E4 _E4 | %163
 D) z!>(! C z B, z A, z!>)! |!p! G,2 z2 z4 | z (B_ag fedf) | .e2 z2 z4 | z (B_ag fedf) | %168
 .e2 .B2!<(! g4- | g(^fgf g)!turn!g(bg)!<)! |!f! d'8- | d'2 z !turn!b (c'a) z (d' | %172
 b2) z2 z2 z (D | E2) z2 z2 z .c | (AB) z .B (^cd) z .d | (^fg) z .g (b/a/g/=f/ e/d/c/B/) | %176
!f! !trill(!TA8 |{GA} G2 z2 z4 | z8 | z8 | z8 | z4 d4 |!p! ^f2 g2 _a2 g2 | %183
 ^f2 c'2- c'-c'/ z/!p! b/a/g/f/ | g z z2 z4 |!p! .g z (a/g/f/e/) .d2 .d2 | %186
 .g2 (a/g/^f/g/) .d'2 z2 | (g^f/g/ a/g/=f/e/) .d2 .d2 | .g.g (a/g/^f/g/) .d'2 z2 | %189
 z!f! (d'/c'/) .b(b/a/) .g(g/f/) .e(e/d/) | ^c4 (=c/d/e/d/ f/e/d/c/) | %191
 (B/G/A/B/ c/d/e/f/ g/)(B/c/d/ e/f/g/a/ | b/)(d/=e/^f/ g/a/b/c'/) d'/^c'/d'/c'/ d'/c'/d'/c'/ | %193
 d'2 z2 ([Gf]4 | [Ge]2) z z2!p! (gfe) | (edBd) (dcBA) | G2 z2 z4 | G2 (A/G/F/E/) .D2 .D2 | %198
 .G2 .G2 .d2 z2 | (G^F/G/ A/G/=F/E/) .D.D.D.D | B,2 z2 z4 | z8 | z8 | z8 | %204
!f! (B/d/c/A/ B/d/c/A/ B/d/c/A/ B/d/c/A/) | d2 z2 (F4 | D4 =B,4) | %207
 (CD/E/ F/G/A/=B/) (Td/B/c/d/) (Tf/d/e/f/) | g4 b4- | b.g z d/ z/ B/ z/ G/ z/ D/ z/ d/ z/ | %210
 !trill(!T^f8 |!p!({e^f)} g2 z2 (c2 B2 | A2 G2 (^F4 | G3)) (A/B/ c2 B2) | (A2 G2) (^F4 | %215
 G2) z2 z4 | z4 (E2 D>)D | (d>B) .G2 z4 | z4 (e2 d>).d |!p! d8- | d8- | d2 z2!<(! (E4 | %222
 D4 ^F4)!<)! :|!ff! .G4 .D3 .D | (ED) .D2 z4 | z8 | z8 |!ff! .A4 .D3 .D | (ED) .D2 z4 | z8 | %230
 z4!p! (AG).G.G | z4 (B_A).A.A | z4 (_AG).G.G | z4 (B_A).A.A | z4 (_AG).G.G | z4!<(! (cB).B.B | %236
 z4 (BA).A.A | z4 (dc).c.c!<)! | .G4 .D3 .D | (ED) .D2 z4 | .G4 .D3 .D | (ED) .D2 z4 | .G4 .F3 .F | %243
 (FE) z .C (ED) z .^F | .G2 z2 .F3 .F | (FE) z .C (ED) z .^F |!ff! .G2 z2 .D3 .D | %247
 (ED) .D2 z3/2 .D/ .F>.B, | (DC) .C2 z3/2 .C/ .E>.A, | .B,>.B, .A,>.G, .D2!fff! [DA^f]2 | %250
 [DBg]2 z2 z4 |] %251
V:2
!ff! G,4 D,3 D, | (E,D,) .D,2 z4 | z8 | z8 |!ff! A,4 D,3 D, | E,D, .D,2 z4 | z8 | z8 | %8
!p! (G,B,DB,) (G,CEC) | (B,DB,G,) (^F,A,F,D,) | (G,B,DB, G,CEC) | (B,DB,G, ^F,A,F,D,) | %12
!f! G,(D,D).D (DCA,^F,) | G,(E,E).E (ECA^F) | !turn!G3 .A B2 ^C2 | .D2 .d2 z4 |!p! B,4 B,3 B, | %17
 (C=B,) B,2 z4 | z8 | z8 |!p! .A,4 .A3 .A | (BA) .A2 z4 | F8- | F8- | F8 | _G4!p! F4- | F8 | B,8- | %28
!p! B,8- |!p! B,2 z2 z4 | z8 |!p! A,4 A,3 A, | B,(=E/D/) .E.F .G2 z2 | C4 E3 E | %34
 D(D/C/) .D.A .B2 z2 |!<(! A(A/G/) .A.B .c2 z2!<)! | z8 |!f! .e4 E3 E | (ED) .D2 z4 | e4 .E3 .E | %40
 (ED) D4 D2- | D2 (C4 B,2) | E6 F2- | [DF] z C z B, z A, z |!p! (B,Adc BAGF) | F8- | F(Bdc BAGF- | %47
 F8) | .F(Afe dcB_A) |!f! G2 z (G _AF) z .B | (GE) B6 | E/G/E/B,/ F/_A/F/B,/ E/G/E/B,/ F/A/F/B,/ | %52
 E2 z2 z4 | (A,B,) z .B, (^CD) z .D | (^cd) z G B/A/G/F/ E/D/C/B,/ | %55
 !trill(!TA,4- A,2- A,-A,/G,/4!trill)!A,/4 | B,2 z2 z4 | z8 | z8 | z8 | z4 D4 | %61
!p! C2 (B,2 D2) E2- |!p! E2 A,3 .B,.C.^C | D2 z2 z4 | (B,/D/F/D/ F/D/F/D/) (C/E/F/E/ F/E/F/E/) | %65
 (B,/D/F/D/ F/D/F/D/) (A,/B,/C/D/ E/D/E/C/) | (B,/D/F/D/ F/D/F/D/) (C/E/F/E/ F/E/F/E/) | %67
 (B,/D/F/D/ F/D/F/D/) (A,/B,/C/D/ E/D/E/C/) | D(d/c/) .B(B/A/) .G(G/F/) .E(E/D/) | %69
 (CD/E/ F/G/A/)B/ (c/=B/c/B/ c/B/c/)B/ | .c z z2 (e4 | d2) z z2!p! (cde) | (edBd) (dcBA) | %73
 B2 z2 z4 | D2 z2 E2- EC | B,2 z2 z4 | D4 (E3 C) | B,2 z2 z4 | z8 | z8 | %80
!f! (B/d/c/A/ B/d/c/A/ B/d/c/A/ B/d/c/A/) | B2 z2 (C/B,/A,/B,/ A,/B,/A,/B,/) | %82
 (C/B,/A,/B,/ A,/B,/A,/B,/) (C/B,/A,/B,/ A,/B,/A,/B,/) | B,2 z2 z4 | z8 | %85
 (B,C/D/ E/F/G/A/ B/c/d/e/) .f.D | !trill(!TE8 |!p! .D(FBA) (GBFA) | (EGDF CDEC) | .D(FBA GBFA) | %90
 (EGDF CDEC) | D2 z2 z4 | z8 | z8 | z8 |!p! .B(B/A/ B).d .c.e.A.c | .B(B/A/ B).d .c.e.A.c | %97
 B2 z2!<(! (C4 | B,4 A,4)!<)! :: (G,4!<(! _A,4 | G,4 F,4!<)! |!f! E,4 (_A,4) | G,4 F,4 | %103
!p! E,2) z2 z4 | z8 | z8 | z8 | z8 | z8 | z8 | z8 |!p! e8 | B8 | .G2 .G2 (PG3 F/E/) | .D2 z2 z4 | %115
 f8 | c8 | ._A2 .A2 (TA3 G/)F/ | =E2 z2 z4 | g8 | d8 |!<(! .B2 .B2 (TB3 A/G/) | ^c2 z2 z4!<)! | %123
!f! d8 | A8 | .F2 .F2 (TF3 =E/D/) | ^C2 z2 z4 | (A,4- A,/=B,/^C/D/ =E/F/G/A/) | (B6 ^c2) | d4 z4 | %130
 (E4- E/F/G/A/ B/c/d/e/) | (G4 F2 =E2) | .D2 z2 z4 | .c4 .G3 .G | (_AG) .G2 z4 | .B4 .F3 .F | %136
 (_GF) .F2 z4 | .A4 .E3 .E | D4 z4 | D4 [D,C]3 [D,C] |!ff! [D,B,]4 D,3 D, | (E,D,) .D,2 z4 | z8 | %143
 z8 |!ff! A,4 D,3 D, | E,D, .D,2 z4 | z8 | (B,8 |!<(! A,8) | G8!<)! |!f! (^c4 =E4) | %151
!p!{/D} ^F4 .F,3 .F, | .G,{/D}(^C/=B,/) .C.D .=E2 z2 | .A,2 z2 .C3 .C | .B,(B,/A,/) .B,.^F .G2 z2 | %155
 .^F(F/=E/) .F.G .A2 z2 | z8 | c4 C3 .C | (CB,) .B,2 z4 | c4 C3 .C | (CB,) .B,4 B,2 | %161
 (=B,2 A,4 G,2) | (G,4 A,2 ^F,2) | G, z!>(! A, z G, z ^F, z!>)! |!p! (G,EGF EDCB,) | B,8 | %166
 z (Bgf edcB) | B8 | (Be)gf (fe)(ed- | d2!<(! ^c3 BGB) | D2 z B cA z d/ z/ | BG!<)!!f! (d6 | %172
 d2) z2 z2 z (=B, | C2) z2 z2 z .A | (^FG) z .G (AB) z .B | (AB) z2 z4 | %176
 [CD] [CD]2 [CD]2 [CD]2 [CD] | [B,D]2 z2 z4 | z8 | z8 | z8 | z4 D4- |!p! D4 F2 E2- | %183
 E2 E,2 D,2 ^F,A, | G,2 z2 z4 |!p! (G,/B,/D/B,/ D/B,/D/B,/) (A,/C/D/C/ D/C/D/C/) | %186
 (G,/B,/D/B,/ D/B,/D/B,/) (^F,/G,/A,/B,/ C/B,/C/A,/) | %187
 (G,/B,/D/B,/ D/B,/D/B,/) (A,/C/D/C/ D/C/D/C/) | %188
 (G,/B,/D/B,/ D/B,/D/B,/) (^F,/G,/A,/B,/ C/B,/C/A,/) | B,2 z!f! (d/c/) .B(B/A/) .G(G/F/) | %190
 (=E/F/G/A/ c/B/A/G/) ^F4 | G2 z/ z2 (G,/A,/B,/ C/D/=E/^F/) | %192
 G/(B,/C/D/ =E/^F/G/A/) B/A/B/A/ B/A/B/A/ | B2 z2 (d4 | c2) z z2!p! (edc) | (cBGB) (BAG^F) | %196
 G2 z2 z4 | B,4 C3 A, | G,2 z2 z4 | (B,4 C3 A,) | G,2 z2 z4 | z8 | z8 | z8 | %204
!f! (G/B/A/^F/ G/B/A/F/ G/B/A/F/ G/B/A/F/) | G2 z2 (_A,/G,/^F,/G,/ F,/G,/F,/G,/) | %206
 (_A,/G,/^F,/G,/ F,/G,/F,/G,/) (A,/G,/F,/G,/ F,/G,/F,/G,/) | G,2 z2 z4 | z8 | %209
 G,A,/B,/ C/D/=E/^F/ G/A/B/c/ d/ z/ B/ z/ | !trill(!Tc8 |!p!({Bc)} (BDGF EGDF) | (CEB,D A,B,CA,) | %213
 (B,DGF EGDF) | (CEB,D A,B,CA,) | B,2 z2 z4 | z8 | z8 | z8 |!p! G{/A}(G/^F/ G).B .A.c.F.A | %220
 .G{/A}(G/^F/ G).B .A.c.F.A | .G2 z2!<(! (C4 | B,4 A,4)!<)! :|!ff! .G,4 .D,3 .D, | (E,D,) .D,2 z4 | %225
 z8 | z8 |!ff! .A,4 .D,3 .D, | (E,D,) .D,2 z4 | z8 |!p! (B,8- | B,8- | B,8 | =B,8 | C8 |!<(! ^C8 | %236
 D8- | D8)!<)! |!f!!f! .G,4 .D,3 .D, | (E,D,) .D,2 z4 | .G,4 .D,3 .D, | (E,D,) .D,2 z4 | %242
 .G,4 .F,3 .F, | (F,E,) z .C, (E,D,) z .^F, | .G,2 z2 .F,3 .F, | (F,E,) z .C, (E,D,) z .^F, | %246
!ff! .G,2 z2 .D,3 .D, | (E,D,) .D,2 z3/2 .D/ .F>.B, | (DC) .C2 z3/2 .C/ .E>.A, | %249
 .B,>.B, .A,>.G, .D2!fff! [Dc]2 | [G,DB]2 z2 z4 |] %251
V:3
 x8 | x8 | x8 | x8 | x8 | x8 | x8 | x8 | x8 | x8 | x8 | x8 | x8 | x8 | x8 | x8 | x8 | x8 | x8 | %19
 x8 | x8 | x8 | x8 | x8 | x8 | x8 | x8 | x8 | x8 | x8 | x8 | x8 | x8 | x8 | x8 | x8 | x8 | x8 | %38
 x8 | x8 | x8 | x8 | z4 z2 C2 | x8 | x8 | x8 | x8 | x8 | x8 | x8 | x8 | x8 | x8 | x8 | x8 | x8 | %56
 x8 | x8 | x8 | x8 | x8 | x8 | x8 | x8 | x8 | x8 | x8 | x8 | x8 | x8 | x8 | x8 | x8 | x8 | x8 | %75
 x8 | x8 | x8 | x8 | x8 | x8 | x8 | x8 | x8 | x8 | x8 | x8 | x8 | x8 | x8 | x8 | x8 | x8 | x8 | %94
 x8 | x8 | x8 | x8 | x8 :: x8 | x8 | x8 | x8 | x8 | x8 | x8 | x8 | x8 | x8 | x8 | x8 | x8 | x8 | %113
 x8 | x8 | x8 | x8 | x8 | x8 | x8 | x8 | x8 | x8 | x8 | x8 | x8 | x8 | x8 | x8 | x8 | x8 | x8 | %132
 x8 | x8 | x8 | x8 | x8 | x8 | x8 | x8 | x8 | x8 | x8 | x8 | x8 | x8 | x8 | x8 | x8 | x8 | x8 | %151
 x8 | x8 | x8 | x8 | x8 | x8 | x8 | x8 | x8 | x8 | x8 | x8 | x8 | x8 | x8 | x8 | x8 | x8 | x8 | %170
 x8 | x8 | x8 | x8 | x8 | x8 | x8 | x8 | x8 | x8 | x8 | x8 | x8 | x8 | x8 | x8 | x8 | x8 | x8 | %189
 x8 | x8 | x8 | x8 | x8 | x8 | x8 | x8 | x8 | x8 | x8 | x8 | x8 | x8 | x8 | x8 | x8 | x8 | x8 | %208
 x8 | x8 | x8 | x8 | x8 | x8 | x8 | x8 | x8 | x8 | x8 | x8 | x8 | x8 | x8 :| x8 | x8 | x8 | x8 | %227
 x8 | x8 | x8 | x8 | x8 | x8 | x8 | x8 | x8 | x8 | x8 | x8 | x8 | x8 | x8 | x8 | x8 | x8 | x8 | %246
 x8 | x8 | x8 | x8 | x8 |] %251
V:4
!ff! G,4 D,3 D, | (E,D,) .D,2 z4 | z8 | z8 |!ff! A,,4 D,,3 D,, | E,,D,, .D,,2 z4 | z8 | z8 | %8
!p! G,,8- | G,,8- | G,,8- | G,,8 |!f! G,,(D,,D,).D, (D,C,A,,^F,,) | G,,(E,,E,).E, (E,C,A,,^F,,) | %14
 !turn!G,,3 .A,, B,,2 ^C,,2 | .D,,2 .D,2 z4 |!p! G,,4 G,3 G, | (^F,G,) G,2 z4 | z8 | z8 | %20
!p! .F,4 .F3 .F | (_GF) .F2 z4 | z (.B,.B,.B, .B,.B,.B,.B,) | z (.A,.A,.A, .A,.A,.A,.A,) | %24
 z (.B,.B,.B, .B,.B,.B,.B,) | z (.A,.A,.A, .A,.A,.A,.A,) | z (._A,.A,.A, .A,.A,.A,.A,) | %27
 (G,B,)G,B,!p! (_A,B,)A,B, | (G,B,)G,B,!p! (_A,B,)A,B, | G,2 z2 z4 | z8 | z8 | F,4 F,,3 F,, | %33
 F,,2 z2 z4 | F,4 F,,3 F,, | F,,2 z2 z4 |!f! B,,2 z2 D,2 z2 | C,2 z2 F,,2 z2 | B,,2 z2 D,2 z2 | %39
 C,2 z2 F,,2 z2 | B,,4 _A,,4 | G,,2 C,2 ^F,,2 G,,2 | (E,8 | D,) z E, z F, z F,, z | %44
 B,,2!p! (B,4 =B,2) | (C3 B, A,G,F,A,) | (B,6 =B,2) | (C3 B,!<(! A,G,F,A,) | %48
 B,2 B,,2!<)! z!f! (B,,C,D,) | E,B,,E,B,, F,B,,D,B,, | E,B,,E,B,, F,B,,D,B,, | E,2 D,2 E,2 D,2 | %52
 E,2 z2 z4 | F,,2 z2 F,,2 z2 | F,,2 z2 z4 | F,,F,,F,,F,, F,,F,,F,,F,, | B,,2 z2 z4 | z8 | z8 | z8 | %60
 z4 B,,4- |!p! B,,2 B,,2 B,,4- |!p! B,,2 B,,2 B,,4- | B,,2 z2 z4 | (B,4 A,4 | B,4 F,4) | (B,4 A,4 | %67
 B,4 F,4) |!f! B,2 z2 z4 |!f! G,2 z2 F,,4- | %70
 F,,G,,/A,,/ (B,,/C,/D,/=E,/) (F,/E,/F,/E,/ F,/E,/F,/^F,/) | G,2 z2!p! _E,2 z2 | F,2 z2 F,,2 z2 | %73
 (B,,4 A,,4 | B,,4 F,,4) | (B,,4 A,,4 | B,,4 F,,4) | B,,2 z2 z4 | z8 | z8 | %80
!f! C,F,,B,,F,, B,,F,,B,,F,, | D,,2 z2 (D,,4 | F,,4 _A,,4) | G,,2 z2 z4 | z8 | F,F,F,F, F,F,F,F, | %86
 F,,F,,F,,F,, F,,F,,F,,F,, |!p! B,,8 | B,,8- | B,,8- | B,,8- | B,,8- | B,,8- | B,,8- | B,,8- | %95
 B,,2 z2 F,,2 z2 | B,,2 z2 F,,2 z2 | (B,,4!<(! C,4 | D,4 D,,4)!<)! :: (E,,4!<(! _A,,4 | %100
 B,,4 =B,,4)!<)! |!f! (C,4 F,,4) | G,,8 |!p! C,2 z2 z4 | z8 | z8 | z8 | z8 | z8 | z8 | z8 | %111
!p! (E,G,B,G, E,G,B,G,) | (F,_A,B,A, F,A,B,A,) | (E,G,B,G, E,G,B,G,) | (F,B,G,F,!f! =E,F,G,E,) | %115
!p! (F,_A,CA, F,A,CA,) | (G,B,CB, G,B,CB,) | (F,_A,CA, F,A,CA,) | (G,CA,G,!f! ^F,G,A,F,) | %119
!p! (G,B,DB, G,B,DB,) | (A,CDC A,CDC) |!<(! (G,B,DB, G,B,DB,) | (=E,A,^CA, E,A,CA,)!<)! | %123
!f! D2 z2 z4 | z8 | D8 | A,8 | F,2 F,2 (TF,3 =E,/D,/) | ^C,2 z2 z4 | %129
 (D,,4- D,,/=E,,/F,,/G,,/ A,,/=B,,/^C,/D,/) | E,4 G,4 | (B,4 A,2 G,2) | .F,2 z2 z4 | .E,,4 .E3 .E | %134
 (FE) .E2 z4 | .D,,4 .D3 .D | (ED) .D2 z4 | .C,,4 .C3 .C | B,4 z4 | %139
 (D,,4- D,,/=E,,/^F,,/G,,/ A,,/B,,/C,/D,/) |!ff! G,,4 D,,3 D,, | (E,,D,,) .D,,2 z4 | z8 | z8 | %144
!ff! A,,4 D,,3 D,, | E,,D,, .D,,2 z4 | z8 | (E,,8 |!<(! =E,,8) | ^C,,8!<)! |!f! A,,8 | %151
!p! D,,2 z2 z4 |!p! D,4 D,,3 D,, | D,,2 z2 z4 | D,4 D,,3 D,, | D,,2 z2 z4 |!f! G,,2 z2 B,,2 z2 | %157
 A,,2 z2 D,,2 z2 | G,,2 z2 B,,2 z2 | A,,2 z2 D,,2 z2 | (G,,4 F,,4) | (=E,,2 A,,2 D,,2 G,,2) | %162
 (^C,4 =C,4 | B,,) z!>(! C, z D, z D,, z!>)! |!p! E,,2 (E,4 =E,2) | (F,3 E,) (D,C,B,,D,) | %166
 E,2 (E4 =E2) | (F3 =E DCB,D) | E2 E,2 z2 E,2- | E,!<(!(D,E,D,) (E,4 | D,)D,G,D, A,D,^F,D,!<)! | %171
!f! G,D,G,D, A,D,^F,D, | G,2 z2 z2 z (G,, | C,2) z2 z2 z C,, | D,,2 z2 D,,2 z2 | D,,2 z2 z4 | %176
!f!!f! D,,D,,D,,D,, D,,D,,D,,D,, | G,,2 z2 z4 | z8 | z8 | z8 | z4 G,,4- |!p! G,,2 G,,2 G,,4- | %183
 G,,2 G,,2 G,,4- | G,,2 z2 z4 |!p! G,4 ^F,4 | G,4 D,4 | G,4 ^F,4 | G,4 D,4 | G,2 z2 z4 | %190
!f! A,4 D,4 | G,2 z2 G,2 z2 | G,2 z2 G,,4- | %193
 G,,(A,,/B,,/ C,/D,/=E,/^F,/) (G,/F,/G,/A,/ =B,/G,/A,/B,/) | C2 z2!p! C,2 z2 | D,2 z2 D,2 z2 | %196
 (G,,4 ^F,,4 | G,,4 D,,4) | (G,,4 ^F,,4 | G,,4 D,,4) | G,,2 z2 z4 | z8 | z8 | z8 | %204
!f! G,B,,G,B,, G,B,,G,B,, | B,,2 z2 (=B,,4 | D,4 F,4) | E,2 z2 z4 | z8 | D,D,D,D, D,D,D,D, | %210
 D,,D,,D,,D,, D,,D,,D,,D,, |!p! G,,8- | G,,8- | G,,8- | G,,8- | G,,8- | G,,8- | G,,8- | G,,8- | %219
!p! G,,2 z2 D,2 z2 | G,,2 z2 D,,2 z2 | (G,,4!<(! C,4) | (D,4 D,,4)!<)! :|!ff! .G,,4 .D,,3 .D,, | %224
 (E,,D,,) .D,,2 z4 | z8 | z8 |!ff! .A,,4 .D,,3 .D,, | (E,,D,,) .D,,2 z4 | z8 |!p! (E,,8 | D,,8) | %232
 (E,,8 | D,,8) | (E,,8 |!<(! =E,,8 | (F,,8 | ^F,,8))!<)! |!f! .G,,4 .D,,3 .D,, | %239
 (E,,D,,) .D,,2 z4 | .G,,4 .D,,3 .D,, | E,,D,, .D,,2 z4 | .G,,4 .F,,3 .F,, | %243
 (F,,E,,) z .B,,, (E,,D,,) z .^F,, | .G,,2 z2 .F,,3 .F,, | (F,,E,,) z .B,,, (E,,D,,) z .^F,, | %246
!ff! .G,,2 z2 .D,,3 .D,, | (E,,D,,) .D,,2 z3/2 .D,/ .F,>.B,, | (D,C,) .C,2 z3/2 .C,/ .E,>.A,, | %249
 .B,,>.B,, .A,,>.G,, .D,2!fff! D,,2 | G,,2 z2 z4 |] %251
V:5
!ff! G4 D3 D | (ED) .D2 z z/ (d/ d'>).d' | (d'2- d'/c'/b/a/ g/f/e/d/ c/B/A/G/) | %3
!p! (PG^F).F.F F2 z2 |!ff! A4 D3 D | ED .D2 z z/ (d/ c'>).c' | c'2- c'/b/a/g/ ^f/e/d/c/ B/A/G/^F/ | %7
!p! (PAG).G.G G2 z2 | z8 | z (dd').d' (d'c'a^f) | g2 z2 z4 | z (dd').d' (d'c'a^f) | %12
!f! .g(dd').d' (d'c'a^f) | g(ee').e' (e'c'a^f) | !turn!g3 .a b2 ^c2 | .d2 .d'2 z4 |"^1" z8 | z8 | %18
!f! [eg]4 [EGc]3 [EGc] | ([F_A=Bd][EGc]) .[EGc]2 z4 | z8 | z8 |!p! f4 _B3 B | (dc) .c2 z4 | %24
 f4 B3 B | (dc) .c2 z4 | f4 B3 B |!f! b2!p! (_a/g/f/e/ .d2) z B |!f! b2!p! (_a/g/f/e/ .d2) z!f! B | %29
 (g/^f/a/g/ b/a/g/=f/ e/d/f/e/ g/f/e/d/) | (c/=B/c/d/ e/d/e/f/ g/f/e/d/ c/_B/A/B/) | %31
!p! z/ (f/a/f/) z/ (c/f/c/) z/ (A/c/A/) z/ (F/A/F/) | %32
 z/ (g/b/g/) z/ (=e/g/e/) z/ (B/e/B/) z/ (G/B/G/) | %33
 z/ (a/c'/a/) z/ (e/a/e/) z/ (c/e/c/) z/ (A/c/A/) | %34
 z/ (b/d'/b/) z/ (f/b/f/) z/ (d/f/d/) z/ (B/d/B/) | %35
!<(! z/ (c'/e'/c'/) z/ (a/c'/a/) z/ (e/a/e/) z/ (c/e/c/)!<)! | %36
!f! (d/B/c/d/ e/f/g/a/ b/c'/d'/e'/) f'f' | (f'/e'/d'/c'/ b/a/g/f/ e/d/c/B/ A/B/c/A/) | %38
 (Bc/d/ e/f/g/a/ b/c'/d'/e'/) f'f' | (f'/e'/d'/c'/ b/a/g/f/ e/d/c/B/ A/B/c/A/) | %40
 (Bc/d/ e/f/g/a/ b/c'/d'/e'/) f'f' | (f/=b/d'/f'/) (=e/g/_b/=e'/) (_e/a/c'/_e'/) (d/g/b/d'/) | %42
 z/ (g/b/a/ c'/=b/d'/c'/ e'/d'/f'/e'/ d'/c'/_b/a/) | (b/d'/b/f/) (g/b/g/e/) (d/f/d/B/) (c/e/c/A/) | %44
"^2"!mp! B2 z2 z4 | [ed']4 [Ee]3 [Ee] | ([Ee][Dd]) .[Dd]2 z4 | [ee']4 [Ee]3 [Ee] | %48
 ([Ee][Dd]) .[Dd]2 z4 | z8 | z8 |!mf! B/b/B/b/ B/b/B/b/ B/b/B/b/ B/b/B/b/ | %52
 z ([eg][fa][gb] [fa][eg][df][ce]) |!mp! z2 ([A^c][Bd]) z .[Bd] ([^c=e][df]) | %54
 z .[df] ([^ca][db]) z4 | z/ (F/A/c/ e/f/a/c'/ e'/c'/a/f/ e/c/A/E/) | D2 z2 ([df]4 | %57
!p! [ce]2) [Bd]2 ([d^f]2 [eg]2- |!p! [eg]2) .[Ac]3 .[Bd].[ce].[^c=e] | [df]2 z2 ([DGB]2 f_e | %60
 [Bd]2 [Ac]2 [df]4 |!p! [ce]2) [Bd]2!f! [d^f]2 [eg]2- |!p! [eg]2 [Ac]2- [Ac][Bd][ce][_d=e] | %63
 [df]2 z2 [FB]2 dc | B2 z2 z4 | z8 | z8 | z8 | z8 | z8 | z8 | z8 | z8 | %73
!p! .b2 (c'/b/a/g/) .f2 .f2 | .b2 .b2 .f'2 z2 | (ba/b/ c'/b/a/g/) .f.f.f.f | %76
 .b.b (b/c'/d'/e'/) f'2 z2 | z!f! (f'/e'/) .d'(d'/c'/) .b(b/_a/) .g(g/^f/) | %78
 (g/b/_a/^f/ g/b/g/f/ g/b/a/f/ g/b/=a/c'/) | (b/d'/c'/a/ b/d'/c'/a/ b/d'/c'/a/ b/d'/c'/e'/) | %80
!f! d'/f'/e'/c'/ d'/f'/e'/c'/ d'/f'/e'/c'/ d'/f'/e'/c'/ | f'2 z2 z4 | z8 | z8 | %84
 (=EF/G/ A/B/c/d/ =e/f/g/a/) b.e | .f.d'.d.d' .f.d'.B.b | !trill(!Ta8 |"^3" b2 z2 z4 | %88
 z4 z!p! (Ff).f | (f>d) B2 z4 | z z4 (ff').f' | f'3 (3(b/c'/d'/) e'2 (d'2 | c'2 b2 a3) a | %93
 .b3 (c'/d'/) (c'e)(dd') | (c'c)Bb (Aa).a.a | .b(b/a/ b).d' .c'.e'.a.c' | %96
 .b(b/a/ b).d' .c'.e'.a.c' | b2 [Bd]2!<(! z2 ([Bd][Ac]) | z2 ([Ac][GB]) z2 ([GB][^FA])!<)! :: %99
 z2 [Bg]2!<(! z2 ([Bg][_Af])!<)! | z2 ([_Af][Ge]) z2 ([Ge][Fd]) |!f! z2 [ege']2 z2 ([ege'][dfd']) | %102
 z2 ([dfd'][cec']) z2 ([cec'][=Bd=b]) |!mp!{/c} c'8 | g8 | .e2 .e2 (Pe3 d/c/) | =B2 z2 z4 | %107
 (c4- c/d/e/f/ g/_a/b/c'/) | _d'4- d'(!turn!d'f'd') |{/c'} =b2 b2 b2 b2 | %110
 c'2!f! [Ec]2 [FB]2 [DF_A]2 | [B,EG]2 z2 z4 | z8 | z8 | z4!f! ([C=EGB]4 |!p! [CF_A]2) z2 z4 | z8 | %117
 z8 | z4!mf! [D^FAc]4 |!p! [DGB]2 z2 z4 | z8 | z8 | z8 |!f!"^4" F,A,DA, FA,DF | G=E^CE GECE | %125
 DFA,D z4 | G,^C=EC G,CEC | DA,D^C DA,DF | G=E^CD EFGE | AFD=E FDAF | BGEB, G,B,EG | =EFGE A^GAA, | %132
 D4- D/=E/F/G/ A/=B/^c/d/ | e4 z4 | (C4- C/D/E/F/ G/A/=B/c/) | d4 z4 | (B,4- B,/C/D/E/ F/G/A/B/) | %137
 c4 z4 | .[Dd]4 [DG]3 [DG] | (G^F) .F2 z4 |!ff!"^5" G4 D3 D | (ED) .D2 z z/ (d/ d'>).d' | %142
 (d'2- d'/c'/b/a/ g/f/e/d/ c/B/A/G/) |!p! (PG^F).F.F F2 z2 |!ff! A4 D3 D | %145
 ED .D2 z3/2 (d/ c'>).c' | (c'2- c'/b/a/g/ ^f/e/d/c/ B/A/G/^F/) |!p! (AG).G.G z2 z G | %148
!<(! (d^c).c.c z2 z c | (f=e).e.e z2 z!<)!!f! e | (ag) z .b ag z ^c | %151
!p! z/ (d/^f/d/) z/ (A/d/A/) z/ (^F/A/F/) z/ (D/F/D/) | %152
 z/ (=e/g/e/) z/ (B/e/B/) z/ (G/B/G/) z/ (=E/G/E/) | %153
 z/ (^f/a/f/) z/ (c/f/c/) z/ (A/c/A/) z/ (^F/A/F/) | %154
 z/ (g/b/g/) z/ (d/g/d/) z/ (B/d/B/) z/ (G/B/G/) | %155
!<(! z/ (a/c'/a/) z/ (^f/a/f/) z/ (c/f/c/) z/ (A/c/A/)!<)! | %156
!f! (B/G/A/B/ c/d/=e/^f/ g/a/b/c'/) .d'.d' | (d'/c'/b/a/ g/^f/e/d/ c/B/A/G/ ^F/G/A/F/) | %158
 (GA/B/ c/d/=e/^f/ g/a/b/c'/) .d'.d' | (d'/c'/b/a/ g/^f/e/d/ c/B/A/G/ ^F/G/A/F/) | %160
 (GA/B/ c/d/=e/^f/ g/a/b/c'/) .d'.d' | (d/^g/=b/d'/) (^c/=e/=g/^c'/) (=c/^f/a/=c'/) (=B/e/g/=b/) | %162
 z/ (b/a/b/ c'/b/a/g/) (^f/c'/=b/c'/ d'/c'/_b/a/) | %163
 (b/d'/b/g/)!>(! (e/g/e/c/) (B/d/B/G/) (A/c/A/^F/)!>)! |!p!"^6" G2 z2 z4 | [_A_a]4 [_A,_A]3 [A,A] | %166
 ([_A,_A][G,G]) [G,G]2 z4 | [_A_a]4 [_A,_A]3 [A,A] | ([_A,_A][G,G]) [G,G]2 z4 | z8 | z8 | z8 | %172
 z!f! ([gb][bd'][ac'] [gb][fa][eg][df]) | z ([ce][df][eg] [df][ce][Bd][Ac]) | %174
 z2 ([^FA][GB]) z .[GB] ([A^c][Bd]) | z .[Bd] ([A^f][Bg]) (g/=f/e/d/ c/B/A/G/) | !trill(!T^F8 | %177
 G2 z2 ([Bd]4 |!p! [Ac]2) [GB]2 [=Bd]2 [ce]2- | [ce]2 [^FA]3 .[GB].[Ac].[A^c] | %180
 [Bd]2 z2 [CEG]2 [EAc]2 | [GB]2 [^FA]2 x4 |!p! [Ac]2 [GB]2 [=Bd]2 [ce]2- | %183
 [ce]2 [^FA]3 .[GB].[Ac].[A^c] | [Bd]2 z3/2 (G/ [GB]2 [^FA]2 | G2) z2 z4 | z8 | z8 | z8 | z8 | z8 | %191
 z8 | z8 | z8 | z8 | z8 |!mp! .g z (a/g/f/e/) .d2 .d2 | .g2 .g2 .d'2 z2 | %198
 (g^f/g/ a/g/=f/e/) .d.d.d.d | .g.g (g/a/b/c'/) d'2 z2 | z!f! (d'/c'/) .b(b/a/) .g(g/f/) .e(e/d/) | %201
 (e/g/f/d/ e/g/f/d/ e/g/f/d/ e/a/g/=e/) | (^f/a/g/=e/ f/a/g/e/ f/a/g/e/ f/b/a/f/) | %203
 (g/b/a/^f/ g/c'/b/g/ a/c'/b/g/ a/d'/c'/a/) |!ff! (b/d'/c'/a/ b/d'/c'/a/ b/d'/c'/a/ b/d'/c'/a/) | %205
 d'2 z2 z4 | z8 | z8 | (^CD/=E/ ^F/G/A/=B/ ^c/d/=e/^f/ g).c | .d.d'.B.b .d.d'.G.g | !trill(!Ta8 | %211
"^7" g2 z2 z4 | z z4!p! (Dd).d | (d>B) .G2 z4 | z z4 (dd').d' | d'3 (3(g/a/b/) (c'2 b2 | %216
 a2 g2 ^f4) | g3 (a/b/) (c'c)(Bb) | (aA)(Gg) (^F^f).f.f |!p! .g{/a}(g/^f/ g).b .a.c'.f.a | %220
 .g{/a}(g/^f/ g).b .a.c'.f.a | g2 [Bd]2 z2 ([Bd][Ac]) | z2 ([Ac][GB]) z2 [GB][^FA] :|!ff! G4 D3 D | %224
 (ED) .E2 z3/2 (d/ d'>).d' | d'2- d'/c'/b/a/ g/f/e/d/ c/B/A/G/ |!p! (G^F).F.F .F2 z2 | %227
!ff! A4 D3 D | (ED) .D2 z3/2 (c/ e'>).e' | e'2- e'/d'/c'/b/ a/g/^f/e/ d/c/B/A/ |!p! (AG).G.G z4 | %231
 (B_A).A.A z4 | (_AG).G.G z4 | (B_A).A.A z4 | (_AG).G.G z4 | (cB).B.B z4 | (BA).A.A z4 | %237
 (dc).c.c z4 |!f! B/g/d/g/ d/b/g/b/ c/a/d/a/ B/g/d/g/ | A/^f/d/f/ d/c'/a/c'/ d/b/g/b/ c/a/f/a/ | %240
 B/g/d/g/ d/b/g/b/ c/a/d/a/ B/g/d/g/ | A/^f/d/f/ d/c'/a/c'/ d/b/g/b/ c/a/f/a/ | %242
!<(! B/g/d/g/ B/g/d/g/ =B/_a/d/a/ B/a/d/a/ | c/g/e/g/ e/c'/a/c'/ d/b/g/b/ c/a/^f/a/ | %244
 B/g/d/g/ B/g/d/g/ =B/_a/d/a/ B/a/d/a/ | c/g/e/g/ e/c'/a/c'/ d/b/g/b/ c/a/^f/a/!<)! |!ff! g4 d3 d | %247
 (ED) .D2 z3/2 d/ f>B | (dc) .c2 z3/2 .c/ .e>.A | B>B A>G d2!fff! [Acd^f]2 | [GBdg]2 z2 z4 |] %251
V:6
 [G,,G,]4 [D,,D,]3 [D,,D,] | ([E,,E,][D,,D,]) .[D,,D,]2 z4 | z2 [B,D]2 [B,D]2 [B,D]2 | %3
!p! [A,CD]6 z2 | [A,,A,]4 [D,,D,]3 [D,,D,] | [E,,E,][D,,D,] .[D,,D,]2 z4 | %6
 z2 [A,CD]2 [A,CD]2 [A,CD]2 |!p! [B,D]6 z2 | z8 | G,2 z2 z4 | G,2 z2 z4 | G,2 z2 z4 | %12
 z (D,D).D (DCA,^F,) | G,(E,E).E (ECA,^F,) | G,3 .A, B,2 ^C,2 | .D,2 .D2 z4 | z8 | z8 | %18
 [C,,C,]4 z2 C,2 | C,,2 C,2 z4 | z8 | z8 |!p! [B,,,B,,]2 z2 z4 | [B,,,B,,]2 z2 z4 | %24
 [B,,,B,,]2 z2 z4 | [B,,,B,,]2 z2 z4 | [B,,,B,,]2 z2 z4 |!f! [B,,,B,,]8- | [B,,,B,,]8 | %29
 [E,,E,]2 z2 z4 | [E,,E,]6 [=E,,=E,]2 |!p! [F,,F,] z F, z F, z F, z | [F,,F,] z F, z F, z F, z | %33
 [F,,F,] z F, z F, z F, z | [F,,F,] z F, z F, z F, z | [F,,F,] z F, z F, z F, z | B,2 z2 D2 z2 | %37
 C2 z2 F,2 z2 | B,2 z2 D2 z2 | C2 z2 F,2 z2 | [B,,B,]4 [_A,,_A,]4 | %41
 [G,,G,]2 [C,C]2 [^F,,^F,]2 [G,,G,]2 | ([E,,E,]8 | [D,,D,]) z [E,,E,] z [F,,F,] z [F,,F,] z | %44
!mp! [B,,B,]4 [B,,,B,,]3 [B,,,B,,] | ([B,,,B,,][A,,,A,,]) .[A,,,A,,]2 z4 | %46
 [B,,B,]4 [B,,,B,,]3 [B,,,B,,] | ([B,,,B,,][A,,,A,,]) .[A,,,A,,]2 z4 | [B,,,B,,]4 z4 | z8 | z8 | %51
!mf! [E,,E,]2 [D,,D,]2 [E,,E,]2 [D,,D,]2 | [E,,E,]2 z2 z4 |!mp! z2 [F,,F,]2 z2 [F,,F,]2 | %54
 z2 [F,,F,]2 z4 | [F,,F,]8 |!mp! B,,B,B,,B, B,,B,B,,B, | B,,B,B,,B, B,,B,B,,B, | %58
 B,,B,B,,B, B,,B,B,,B, | B,,2 z2 (G,2 E,2 | F,4)!mp! B,,B,B,,B, | B,,B,B,,B, B,,B,B,,B, | %62
 B,,B,B,,B, B,,B,B,,B, | B,,2 z2 D2 E2 | D2 z2 z4 | z8 | z8 | z8 | z8 | z8 | z8 | z8 | z8 | %73
!p! (F,/B,/D/F/ F,/B,/D/F/) (F,/C/E/F/ F,/C/E/F/) | %74
 (F,/B,/D/F/ F,/B,/D/F/) (F,/A,/C/F/ F,/A,/C/F/) | (F,/B,/D/F/ F,/B,/D/F/) (F,/C/E/F/ F,/C/E/F/) | %76
 (F,/B,/D/F/ F,/B,/D/F/) (F,/A,/C/F/ F,/A,/C/F/) | B,2 z z4[K:treble] [DB] | EDED EDEC | %79
 DEDE DEDA, |[K:bass]!f! B,F,B,F, B,F,B,F, | D,2 z2 z4 | z8 | z8 | ([G,,G,]8 | [F,,F,]2) z2 z4 | %86
 (F,,/F,/=E,/F,/) (F,,/F,/E,/F,/) (F,,/F,/E,/F,/) (F,,/F,/E,/F,/) | B,,2 z2 z4 | z8 | z8 | z8 | %91
[K:treble] z (FBA FBFA) | (GBDF CDEC) | .D(FBA GBFA) | (EGDF CDEC) | %95
 [DF][DF][DF][DF] [EF][EF][EF][EF] | [DF][DF][DF][DF] [EF][EF][EF][EF] | [DF]2 z2[K:bass] C,2 z2 | %98
 D,2 z2 D,,2 z2 :: E,,2 z2 _A,,2 z2 | B,,2 z2 =B,,2 z2 | C,2 z2 F,2 z2 | G,2 z2 G,,2 z2 | %103
[K:treble]!mp! (CEGE CEGE) | (=B,FGF B,FGF) | (CEGE CEGE) | (G,DGD G,DGD) | %107
[K:bass] (_A,CEC A,CEC) | (F,_A,_DA, F,A,DA,) | (G,DFD G,DFD) | (CE)(C,E,) (D,F,)(B,,D,) | %111
 E,2 z2 z4 |!p! [D,,D,]2 z2 z4 | (E,,4 G,,4 | B,,4 C,4) | (F,,8 | G,,4 C,,4) | %117
 [F,,,F,,]4 [_A,,,_A,,]4 | [C,,C,]4 [D,,D,]4 | (G,,8 | A,,4 D,,4) |!<(! G,,8 | [A,,,A,,]8!<)! | %123
 D,4 F,4 | =E,4 A,,4 | D,,4 F,,4 | =E,,4 A,,,4 | D,,4 F,,4 | =E,,4 [G,,,G,,]4 | [F,,,F,,]8 | %130
 [G,,,G,,]8 | [A,,,A,,]8 | [D,,D,-]4 D,/=E,/F,/G,/ A,/=B,/^C/D/ | [E,E]4 z4 | %134
 ([C,,C,-]4 C,/D,/E,/F,/ G,/A,/=B,/C/) | [D,D]4 z4 | ([B,,,B,,-]4 B,,/C,/D,/E,/ F,/G,/A,/B,/) | %137
 [C,C]4 z4 | [B,,,B,,]4 B,3 B, | A,4 z4 | [G,,G,]4 [D,,D,]3 [D,,D,] | %141
 ([E,,E,][D,,D,]) .[D,,D,]2 z4 | z2 [B,D]2 [B,D]2 [B,D]2 |!p! [A,CD]6 z2 | %144
 [A,,A,]4 [D,,D,]3 [D,,D,] | [E,,E,][D,,D,] .[D,,D,]2 z4 | z2 [D,A,C]2 [D,A,C]2 [D,A,C]2 | %147
!p! [E,G,^C]8 | [=E,G,^C]8 | [^C,=E,A,]8 |!f! A,,2 A,2 A,,2 A,2 |!p! [D,,D,] z D, z D, z D, z | %152
 [D,,D,] z D, z D, z D, z | [D,,D,] z D, z D, z D, z | [D,,D,] z D, z D, z D, z | %155
 [D,,D,] z D, z D, z D, z |!f! G,2 z2 B,2 z2 | A,2 z2 D,2 z2 | G,2 z2 B,2 z2 | A,2 z2 D,2 z2 | %160
 ([G,,G,]4 [F,,F,]2) z2 | [=E,,=E,]2 [A,,A,]2 [D,,D,]2 [G,,G,]2 | [^C,,^C,]4 ([=C,,=C,]4 | %163
 [B,,,B,,]) z [C,,C,] z [D,,D,] z [D,,D,] z |!p! [E,E]4 [E,,E,]3 [E,,E,] | %165
 ([E,,E,][D,,D,]) [C,,D,]2 z4 | [E,,E,]4 [E,,E,]3 [E,,E,] | ([E,,E,][D,,D,]) [D,,D,]2 z4 | %168
 [E,,E,]4 z4 | z8 | z8 | z8 |!f! [G,,G,]2 z2 z4 | [C,,C,]2 z2 z4 | z2 [D,,D,]2 z2 [D,,D,]2 | %175
 z2 [D,,D,]2 z4 | (D,,/D,/^C,/D,/) (D,,/D,/C,/D,/) (D,,/D,/C,/D,/) (D,,/D,/C,/D,/) | %177
 G,,G,G,,G, G,,G,G,,G, |!p! G,,G,G,,G, G,,G,G,,G, | G,,G,G,,G, G,,G,G,,G, | G,,2 z2 (E,2 C,2 | %181
 D,4) G,,G,G,,G, | G,,G,G,,G, G,,G,G,,G, | G,,G,G,,G, G,,G,G,,G, | G,,2 z2 (D2 [D,C]2) | %185
 B,2 z2 z4 | z8 | z8 | z8 | z8 | z8 | z8 | z8 | z8 | z8 | z8 | %196
 (D,/G,/B,/D/) (D,/G,/B,/D/) (D,/A,/C/D/) (D,/A,/C/D/) | %197
 (D,/G,/B,/D/) (D,/G,/B,/D/) (D,/^F,/A,/D/) (D,/F,/A,/D/) | %198
 (D,/G,/B,/D/) (D,/G,/B,/D/) (D,/A,/C/D/) (D,/A,/C/D/) | %199
 (D,/G,/B,/D/) (D,/G,/B,/D/) (D,/^F,/A,/D/ D,/F,/A,/D/) | B,2 z2 z2[K:treble] z [=B,G] | %201
 C=B,CB, CB,C^C | D^CDC DCDD | EDE=E FEF^F | [Gd][Dd][Gd][Dd] [Gd][Dd][Gd][Dd] | B,2 z2 z4 | z8 | %207
 z8 |[K:bass] [=E,,=E,]8 | [D,,D,]2 z2 z4 | (D,/D/^C/D/) (D,/D/C/D/) (D,/D/C/D/) (D,/D/C/D/) | %211
 G,2 z2 z4 | z8 | z8 | z8 |[K:treble] z (DGF EGDF) | (CEB,D A,B,CA,) | (B,DGF EGDF) | %218
 (CEB,D A,B,CA,) | [B,D][B,D][B,D][B,D] [CD][CD][CD][CD] | [B,D][B,D][B,D][B,D] [CD][CD][CD][CD] | %221
 [B,D]2 z2[K:bass]!<(! C,2 z2 | D,2 z2 D,,2 z2!<)! :|!ff! [G,,G,]4 [D,,D,]3 [D,,D,] | %224
 ([E,,E,][D,,D,]) .[D,,D,]2 z4 | z2 [B,D]2 [B,D]2 [B,D]2 |!p! [A,CE]4- [A,CE]2 z2 | %227
 [A,,A,]4 [D,,D,]3 [D,,D,] | ([E,,E,][D,,D,]) .[D,,D,]2 z4 | z2 [D,^F,C]2 [D,F,C]2 [D,F,C]2 | %230
!p! (E,G,B,G, E,G,B,G,) | (D,F,B,F, D,F,B,F,) | (E,G,B,G, E,G,B,G,) | (D,F,=B,F, D,F,B,F,) | %234
 (E,G,CG, E,G,CG,) | (=E,G,^CG, E,G,CG,) | (F,A,DA, F,A,DA,) | (^F,A,DA, F,A,DA,) | %238
!f! G,/D/B,/D/ G,/D/B,/D/ ^F,/D/A,/D/ G,/D/B,/D/ | D,/D/A,/D/ ^F,/D/A,/D/ G,/D/B,/D/ A,/D/C/D/ | %240
 G,/D/B,/D/ G,/D/B,/D/ ^F,/D/A,/D/ G,/D/B,/D/ | D,/D/A,/D/ ^F,/D/A,/D/ G,/D/B,/D/ A,/D/C/D/ | %242
 G,/D/B,/D/ G,/D/B,/D/ F,/D/=B,/D/ F,/D/B,/D/ | E,/C/G,/C/ C,/A,/E,/A,/ D,/D/B,/D/ D,/C/A,/C/ | %244
 G,/D/B,/D/ G,/D/B,/D/ F,/D/=B,/D/ F,/D/B,/D/ | E,/C/G,/C/ C,/A,/E,/A,/ D,/D/B,/D/ F,/C/A,/C/ | %246
!ff! [G,,G,]4 [D,,D,]3 [D,,D,] | ([E,,E,][D,,D,]) .[D,,D,]2 z3/2 D,/ F,>B,, | %248
 (D,C,) .C,2 z3/2 .C,/ .E,>.A,, | B,,>B,, A,,>G,, D,2!fff! [D,,D,]2 | [G,,,G,,]2 z2 z4 |] %251
V:7
 x8 | x8 | x8 | x8 | x8 | x8 | x8 | x8 | x8 | x8 | x8 | x8 | x8 | x8 | x8 | x8 | x8 | x8 | x8 | %19
 x8 | x8 | x8 | x8 | x8 | x8 | x8 | x8 | x8 | x8 | x8 | x8 | x8 | x8 | x8 | x8 | x8 | x8 | x8 | %38
 x8 | x8 | x8 | x8 | x8 | x8 | x8 | x8 | x8 | x8 | x8 | x8 | x8 | x8 | x8 | x8 | x8 | x8 | x8 | %57
 x8 | x8 | x6 [Gc]2 | F4 x4 | x8 | x8 | x6 A2 | x8 | x8 | x8 | x8 | x8 | x8 | x8 | x8 | x8 | x8 | %74
 x8 | x8 | x8 | x8 | x8 | x8 | x8 | x8 | x8 | x8 | x8 | x8 | x8 | x8 | x8 | x8 | x8 | x8 | x8 | %93
 x8 | x8 | x8 | x8 | x8 | x8 :: x8 | x8 | x8 | x8 | x8 | x8 | x8 | x8 | x8 | x8 | x8 | x8 | x8 | %112
 x8 | x8 | x8 | x8 | x8 | x8 | x8 | x8 | x8 | x8 | x8 | x8 | x8 | x8 | x8 | x8 | x8 | x8 | x8 | %131
 x8 | x8 | x8 | x8 | x8 | x8 | x8 | x8 | C4 x4 | x8 | x8 | x8 | x8 | x8 | x8 | x8 | x8 | x8 | x8 | %150
 x8 | x8 | x8 | x8 | x8 | x8 | x8 | x8 | x8 | x8 | x8 | x8 | x8 | x8 | x8 | x8 | x8 | x8 | x8 | %169
 x8 | x8 | x8 | x8 | x8 | x8 | x8 | x8 | x8 | x8 | x8 | x8 | D4 [Bd]4 | x8 | x8 | x8 | x8 | x8 | %187
 x8 | x8 | x8 | x8 | x8 | x8 | x8 | x8 | x8 | x8 | x8 | x8 | x8 | x8 | x8 | x8 | x8 | x8 | x8 | %206
 x8 | x8 | x8 | x8 | x8 | x8 | x8 | x8 | x8 | x8 | x8 | x8 | x8 | x8 | x8 | x8 | x8 :| x8 | x8 | %225
 x8 | x8 | x8 | x8 | x8 | x8 | x8 | x8 | x8 | x8 | x8 | x8 | x8 | x8 | x8 | x8 | x8 | x8 | x8 | %244
 x8 | x8 | x8 | x8 | x8 | x8 | x8 |] %251
V:8
 x8 | x8 | x8 | x8 | x8 | x8 | x8 | x8 | x8 | x8 | x8 | x8 | x8 | x8 | x8 | x8 | x8 | x8 | x8 | %19
 x8 | x8 | x8 | x8 | x8 | x8 | x8 | x8 | x8 | x8 | x8 | x8 | x8 | x8 | x8 | x8 | x8 | x8 | x8 | %38
 x8 | x8 | x8 | x8 | x8 | x8 | x8 | x8 | x8 | x8 | x8 | x8 | x8 | x8 | x8 | x8 | x8 | x8 | x8 | %57
 x8 | x8 | x8 | x8 | x8 | x8 | x4 (F,4 | B,2) x6 | x8 | x8 | x8 | x8 | x8 | x8 | x8 | x8 | x8 | %74
 x8 | x8 | x8 | x7[K:treble] x | B4- B3 F | F4- F3 F |[K:bass] F F2 F2 F2 F | x8 | x8 | x8 | x8 | %85
 x8 | x8 | x8 | x8 | x8 | x8 |[K:treble] x8 | x8 | x8 | x8 | x8 | x8 | x4[K:bass] x4 | x8 :: x8 | %100
 x8 | x8 | x8 |[K:treble] x8 | x8 | x8 | x8 |[K:bass] x8 | x8 | x8 | x8 | x8 | x8 | x8 | x8 | x8 | %116
 x8 | x8 | x8 | x8 | x8 | x8 | x8 | x8 | x8 | x4 F,A,D,F, | x8 | x8 | x8 | x8 | x8 | x8 | x8 | x8 | %134
 x8 | x8 | x8 | x8 | x8 | x8 | x8 | x8 | x8 | x8 | x8 | x8 | x8 | x8 | x8 | x8 | x8 | x8 | x8 | %153
 x8 | x8 | x8 | x8 | x8 | x8 | x8 | x8 | x8 | x8 | x8 | x8 | x8 | x8 | x8 | x8 | x8 | x8 | x8 | %172
 x8 | x8 | x8 | x8 | x8 | x8 | x8 | x8 | x8 | x8 | x8 | x8 | C2 z2 (D,4 | G,2) x6 | x8 | x8 | x8 | %189
 x8 | x8 | x8 | x8 | x8 | x8 | x8 | x8 | x8 | x8 | x8 | x6[K:treble] x2 | G4 G3 A | A4 A3 B | %203
 B3 c c3 d | x8 | x8 | x8 | x8 |[K:bass] x8 | x8 | x8 | x8 | x8 | x8 | x8 |[K:treble] x8 | x8 | %217
 x8 | x8 | x8 | x8 | x4[K:bass] x4 | x8 :| x8 | x8 | x8 | x8 | x8 | x8 | x8 | x8 | x8 | x8 | x8 | %234
 x8 | x8 | x8 | x8 | x8 | x8 | x8 | x8 | x8 | x8 | x8 | x8 | x8 | x8 | x8 | x8 | x8 |] %251

